packages/icons/src/svgs/bitcoin-filled.svg

<?xml version="1.0" encoding="UTF-8"?>
<svg viewBox="0 0 1024 1024"
  xmlns="http://www.w3.org/2000/svg">
    <g stroke="none" stroke-width="1" fill="none" fill-rule="evenodd">
      <g>
        <circle fill="#FFFFFF" cx="513" cy="512" r="512"></circle>
        <rect fill-opacity="0" fill="#FFFFFF" x="0" y="0" width="1024" height="1024"></rect>
        <path d="M774.620197,443.020816 C785.605878,369.046805 729.692038,329.281438 653.235071,302.752663 L678.036614,202.546375 L617.48201,187.344149 L593.336115,284.909738 C577.41798,280.914934 561.067569,277.145152 544.820956,273.409787 L569.138976,175.2009 L508.618536,160 L483.801227,260.171872 C470.623928,257.148635 457.688393,254.161136 445.132578,251.016123 L445.202217,250.70374 L361.69213,229.699917 L345.583478,294.84777 C345.583478,294.84777 390.511638,305.218639 389.562988,305.861937 C414.088607,312.028865 418.520456,328.377378 417.779405,341.337324 L389.528825,455.494979 C391.218525,455.92914 393.408829,456.553906 395.823813,457.526796 C393.805632,457.023806 391.649492,456.466545 389.425026,455.92914 L349.826124,615.845689 C346.825133,623.350836 339.218853,634.608557 322.076146,630.334461 C322.679235,631.221314 278.061162,619.268671 278.061162,619.268671 L248,689.090365 L326.801001,708.877745 C341.4604,712.577373 355.828108,716.451722 369.969821,720.099727 L344.910752,821.453626 L405.395716,836.654527 L430.214338,736.378086 C446.736874,740.895734 462.777203,745.065261 478.47197,748.991233 L453.73875,848.799101 L514.293353,864 L539.353737,762.838031 C642.610718,782.520843 720.258098,774.581535 752.940529,680.507759 C779.276728,604.761367 751.629238,561.070029 697.301298,532.578267 C736.866039,523.388102 766.668357,497.171709 774.620197,443.020816 Z M636.264487,638.448491 C617.551649,714.193559 490.941064,673.246165 449.892909,662.978542 L483.14558,528.703916 C524.193735,539.023162 655.822178,559.45384 636.264487,638.448491 Z M654.994409,441.92615 C637.920026,510.826577 532.541066,475.821088 498.356825,467.238482 L528.504704,345.455227 C562.688945,354.037833 672.775679,370.054109 654.994409,441.92615 Z" fill="#000000" fill-rule="nonzero"></path>
      </g>
  </g>
</svg>

<?xml version="1.0" encoding="UTF-8"?>
<svg viewBox="0 0 1024 1024"
  xmlns="http://www.w3.org/2000/svg">
  <path d="M774.62 443.02c10.986-73.973-44.928-113.739-121.385-140.267l24.802-100.207-60.555-15.202-24.146 97.566c-15.918-3.995-32.268-7.765-48.515-11.5l24.318-98.21-60.52-15.2L483.8 260.172c-13.177-3.023-26.113-6.01-38.668-9.156l0.07-0.312-83.51-21.004-16.11 65.148s44.929 10.37 43.98 11.014c24.526 6.167 28.957 22.515 28.216 35.475l-28.25 114.158c1.69 0.434 3.88 1.059 6.295 2.032-2.018-0.503-4.175-1.06-6.399-1.598l-39.599 159.917c-3 7.505-10.607 18.763-27.75 14.488 0.603 0.887-44.015-11.065-44.015-11.065L248 689.09l78.801 19.788c14.66 3.7 29.027 7.574 43.169 11.222l-25.06 101.354 60.486 15.2 24.818-100.276a2283.394 2283.394 0 0 0 48.258 12.613L453.739 848.8 514.293 864l25.06-101.162c103.258 19.683 180.905 11.744 213.588-82.33 26.336-75.747-1.312-119.438-55.64-147.93 39.565-9.19 69.367-35.406 77.32-89.557zM636.264 638.449c-18.712 75.746-145.323 34.798-186.371 24.53l33.253-134.274c41.048 10.32 172.676 30.75 153.118 109.744z m18.73-196.522c-17.074 68.9-122.453 33.895-156.637 25.312l30.148-121.783c34.184 8.583 144.27 24.6 126.49 96.471z" fill-opacity=".85"></path>
</svg>
